X:39
T: Tochter als Faehnrich
N: Q0096A
O: Mitteleuropa, Deutschland / Frankreich, Lothringen, Hommert
R: Ballade, Frau in Maennerkleidung, Soldat
M: 4/4
L: 1/16
K: G
D4 | G4D4G4A2c2 | B4A2G2G4
G2B2 | A4G4A4B2d2 | d3dc2B2A4
G3G | A6B2A4G4 | A4B2c2d4
d2d2 | G6A2G4F4 | E4E4D4
D2D2 | G4F4G4A2c2 | B4A2A2G4

